X:1
T:Rickett's hornpipe
%%composerspace
C:from the playing of Sally Sloane
%%musicspace
M:4/4
L:1/8
K:Dmaj
|:Bc|dcdA FAdf|edcB A2b2|afaf bagf|edcB A2Bc|
dcdA FAdf|edcB A2fg|afdf bgec|d2d2d2:|
|:b2|afaf d2a2|bgbg e3b|afaf bagf| edcB A2Bc|
dcdA FAdf|edcB A2f2|afdf bgec|d2d2d2:|T: transposed to GM:4/4L:1/8K:Gmaj|:EF|GFGD B,DGB|AGFE D2e2|dBdB edcB|AGFE D2EF|GFGD B,DGB|AGFE D2Bc|dBGB ecAF|G2G2G2:||:e2|dBdB G2d2|ecec A3e|dBdB edcB| AGFE D2EF|GFGD B,DGB|AGFE D2B2|dBGB ecAF|G2G2G2:|